**kern	**kern
*part1	*part1
*staff2	*staff1
*I"Piano	*
*clefF4	*clefG2
*k[f#c#g#d#a#]	*k[f#c#g#d#a#]
=1	=1
*	*^
4D#	8dd#L	2.dd#
.	8g#	.
4G#	8f#	.
.	8d#	.
4B#X	8g#	.
.	8f#J	.
=	=	=
*^	*	*
4C#	[2.C#	8ff#L	2.ff#
.	.	8dd#	.
4G#	.	8g#	.
.	.	8f#	.
4B#X	.	8dd#	.
.	.	8g#J	.
=	=	=	=
4c#	2C#]	8eeL	2ee
.	.	8cc#	.
4G#	.	8g#	.
.	.	8e	.
4D#	4rg	8b	4dd#
.	.	8g#J	.
=	=	=	=
!	!	!LO:TX:a:B:t=meno Presto	!
4rF	2.E	8d#L	[2.dd#
.	.	8b	.
4G#	.	8g#	.
.	.	8d#	.
4G#	.	8b	.
.	.	8g#J	.
=	=	=	=
4rF	2.E	8d#L	2.dd#]
.	.	8b	.
4G#	.	8g#	.
.	.	8d#	.
4G#	.	8b	.
.	.	8g#J	.
=	=	=	=
4rF	2.E	8c#L	2.cc#
.	.	8g#	.
4G#	.	8e	.
.	.	8c#	.
4G#	.	8g#	.
.	.	8eJ	.
=	=	=	=
!	!	!LO:TX:a:B:t=ritard.	!
4rF	2.E#X	8BL	2.b
.	.	8g#	.
4G#	.	8c#	.
.	.	8B	.
4G#	.	8g#	.
.	.	8c#J	.
*v	*v	*	*
*	*v	*v
=	=
*-	*-
!!!system-decoration: {(s1,s2)}
